X: 19
T: Waiting For Nancy
C: Curt Bouterse (1972)
S: Karl Moore - Peach Bottom String Band
M: 4/4
L: 1/4
K: D
A/A/ |\
"D"B/A/A/A/ B/A/A/A/ | "D"B/A/A/A/ "A"EE/F/ |\
[1,3 "A"GF E/D/E/F/ | G/E/F E :|\
[2,4 "A"GF E/C/-C | "D"D2 D:|
|:\
D |\
"C"=C3/D/ E3/F/ | GF E/D/E/F/ |\
[1,3 "C"G/E/F E/D/E/F/ | GF E :|\
[1,4 "C"GF "A"E/^C3/ | "D"D2 D :|
